X:1
T:God So Loved the World
T:from The Crucifixion Adapted for Young Voices
T:John 3:16-17
T:Sir John Stainer, 1887 
T:This music is in the public domain
T:This music is in the public domain
Z:This music is in the public domain
%%score 1 { ( 2 3 ) | ( 4 5 ) }
L:1/8
Q:1/4=90
M:3/4
K:Bb
V:1 treble nm="Voice"
V:2 treble nm="Piano or Organ"
V:3 treble 
V:4 bass 
V:5 bass 
V:1
"^Andante" D6 | D2 C3 C | F6- | F2 z2 z2 | F6 | F2 =E3 =E | A6- | A2 G2 F2 | B4 A2 | A2 G2 F2 | %10
w: God|so loved the|world,|_|God|so loved the|world,|_ that He|gave His|on- ly be-|
 E4 D2 | G4 G2 | c2 c2 B2 | A2 B2 G2 | G2 F2 F2 | B4 z2 | B,4 E2 | E2 D4 | D4 c2 | B2 A2 G2 | %20
w: got- ten|Son, that|who- so be-|liev- eth, be-|liev- eth in|Him|should not|per- ish,|should not|per- ish but|
 F2 B2 d2 | d4 c2 | B6 | z2 D2 D2 | G2 F2 E2 | D3 E DC | B,2 D2 G2 | B>A A2 A2 | c2 c2 B2 | %29
w: have ev- er-|last- ing|life.|For God|sent not His|Son in- to the|world to con-|demn the world, God|sent not His|
 A3 A BG | ^F2 G2 E2 | E>D D4 | D2 D2 D2 | D4 D2 | D2 A2 G2 | (F4 =E2) | D6 | D6 | D2 C3 C | F6- | %40
w: Son in- to the|world to con-|demn the world;|but that the|world through|Him might be|sa- *|ved.|God|so loved the|world,|
 F2 z2 z2 | F6 | F2 =E3 =E | A6- | A2 G2 F2 | B4 A2 | A2 G2 F2 | E4 D2 | G4 G2 | c2 c2 B2 | %50
w: _|God|so loved the|world,|_ that He|gave His|on- ly be-|got- ten|Son, that|who- so be-|
 A2 B2 G2 | G2 F2 F2 | B4 z2 | B,4 E2 | E2 D4 | D4 c2 | B2 A2 G2 | F2 B2 d2 | d4 c2 | B2 B2 B2 | %60
w: liev- eth, be-|liev- eth in|Him|should not|per- ish,|should not|per- ish, but|have ev- er-|last- ing|life, ev- er-|
 B4 _A2 | G2 B2 e2 | e4 d2 | c4 B2 | (A6 | B4) G2 | !fermata!F6 | F6 | G2 F3 F | B6- | B4 z2 | D6 | %72
w: last- ing|life, ev- er-|last- ing,|ev- er-|last-|* ing|life.|God|so loved the|world,|_|God|
 D2 C3 C | F6- | F4 z2 | D6 | D2 C2 D2 | B,6 |] %78
w: so loved the|world,|_|God|so loved the|world.|
V:2
 D6 | D2 C3 C | F6- | F2 z2 z2 | F6 | F2 =E3 =E | A6- | A2 G2 F2 | B4 A2 | A2 G2 F2 | E4 D2 | %11
 G4 G2 | c2 c2 B2 | A2 B2 G2 | G2 F2 B,2 | B4 z2 | B,4 E2 | E2 D4 | D4 c2 | B2 A2 G2 | F2 B2 d2 | %21
 d4 c2 | B6 | z2 D2 D2 | G2 F2 E2 | D3 E DC | B,2 D2 G2 | B>A A2 A2 | c2 c2 B2 | A3 A BG | %30
 ^F2 G2 E2 | E>D D4 | D2 D2 D2 | D4 D2 | D2 A2 G2 | F4 =E2 | D6 | D6 | D2 C3 C | F6- | F2 z2 z2 | %41
 F6 | F2 =E3 =E | A6- | A2 G2 F2 | B4 A2 | A2 G2 F2 | E4 D2 | G4 G2 | c2 c2 B2 | A2 B2 G2 | %51
 G2 F2 B,2 | B4 z2 | B,4 E2 | E2 D4 | D4 c2 | B2 A2 G2 | F2 B2 d2 | d4 c2 | B2 B2 B2 | _B4 _A2 | %61
 G2 B2 e2 | e4 d2 | c4 B2 | (A6 | B4) G2 | !fermata!F6 | F6 | G2 F3 F | B6- | B4 z2 | D6 | %72
 D2 C3 C | F6- | F4 z2 | D6 | D2 C2 D2 | B,6 |] %78
V:3
 B,6 | B,2 A,3 A, | B,6- | B,2 x2 x2 | D6 | D2 ^C3 ^C | (D6 | C2) B,2 A,2 | (B,2 D2) C2 | %9
 C2 B,2 A,2 | G,4 A,2 | B,4 =B,2 | C2 C2 D2 | E2 E2 D2 | C2 C2 [DF]2 | E4 x2 | B,4 B,2 | C2 C4 | %18
 A,4 D2 | D2 C2 B,2 | D2 F2 F2 | F4 E2 | D6 | z2 B,2 B,2 | D2 C2 B,2 | A,3 B, A,^F, | G,2 B,2 D2 | %27
 G>^F ^F2 D2 | C2 C2 D2 | E3 E DD | C2 D2 B,2 | C>C C4 | D2 D2 D2 | (B,2 A,2) G,2 | A,2 A,2 B,2 | %35
 A,4 G,2 | F,6 | B,6 | B,2 A,3 A, | B,6- | B,2 x2 x2 | D6 | D2 ^C3 ^C | (D6 | C2) B,2 A,2 | %45
 (B,2 D2) C2 | C2 B,2 A,2 | G,4 A,2 | B,4 =B,2 | C2 C2 D2 | E2 E2 D2 | C2 C2 [DF]2 | E4 x2 | %53
 B,4 B,2 | C2 C4 | A,4 D2 | D2 C2 B,2 | D2 F2 F2 | F4 E2 | D2 D2 G2 | G4 F2 | E2 E2 E2 | _A4 _A2 | %63
 G4 F2 | E6 | E6 | E6 | D6 | C2 D3 F | (F6 | E4) x2 | B,6 | A,2 A,3 C | (C6 | B,4) x2 | A,6 | %76
 A,2 A,2 A,2 | B,6 |] %78
V:4
!mf! F,6 | F,2 F,3 F, | F,6- | F,2 z2 z2 | A,6 | B,2 B,3 B, | A,6 | F,4 F,2 | F,4 ^F,2 | %9
 ^F,2 G,2 A,2 | B,4 A,2 | G,4 G,2 | G,2 G,2 G,2 | ^F,2 G,2 B,2 | _A,2 _A,2 _A,2 | G,4 z2 | %16
 B,4 B,2 | A,2 A,4 | (C2 B,2) A,2 | G,2 ^F,2 G,2 | B,2 D2 B,2 | (B,2 G,2) A,2 | B,6 | z2 G,2 G,2 | %24
 B,2 A,2 G,2 | ^F,3 G, ^F,D, | G,2 G,2 B,2 | D>D, D,2 ^F,2 | G,2 G,2 G,2 | ^F,3 ^F, G,G, | %30
 A,2 G,2 B,2 | [^F,,A,]>[F,,A,] [F,,A,]4 | D,2 D,2 D,2 | D,4 D,2 | D,2 D,2 D,2 | D,4 ^C,2 | D,6 | %37
 F,6 | F,2 F,3 F, | F,6- | F,2 z2 z2 | A,6 | B,2 B,3 B, | A,6 | F,4 F,2 | F,4 ^F,2 | ^F,2 G,2 A,2 | %47
 B,4 A,2 | G,4 G,2 | G,2 G,2 G,2 | ^F,2 G,2 B,2 | _A,2 _A,2 _A,2 | G,4 z2 | B,4 B,2 | A,2 A,4 | %55
 (C2 B,2) A,2 | G,2 ^F,2 G,2 | B,2 D2 B,2 | (B,2 G,2) A,2 | B,2 B,2 B,2 | (B,2 C2) D2 | %61
 E2 B,2 B,2 | =B,4 =B,2 | C4 D2 | F,6 | G,6 | C6 | _A,6 | _A,2 _A,3 _A, | G,6- | G,4 z2 | F,6 | %72
 E,2 E,3 E, | (E,6 | D,4) z2 | F,6 | F,2 E,2 F,2 | D,6 |] %78
V:5
 B,,6 | E,2 E,3 E, | D,6- | D,2 x2 x2 | D,6 | G,2 G,3 G, | F,6 | E,4 E,2 | D,4 D,2 | E,2 E,2 =F,2 | %10
 G,4 F,2 | E,4 F,2 | E,2 E,2 D,2 | C,2 B,,2 B,,2 | B,,2 B,,2 B,,2 | B,,4 x2 | B,,4 G,2 | %17
 ^F,2 ^F,4 | ^F,4 ^F,2 | G,2 D,2 E,2 | F,2 F,2 F,2 | F,4 F,2 | B,6 | x2 x4 | x2 x4 | x2 x4 | %26
 x2 x4 | x2 x2 D,2 | E,2 E,2 D,2 | C,3 C, B,,B,, | A,,2 B,,2 G,,2 | x6 | D,2 D,2 D,2 | %33
 (G,,2 F,,2) =E,,2 | F,,2 F,,2 G,,2 | A,,6 | D,,6 | B,,6 | E,2 E,3 E, | D,6- | D,2 x2 x2 | D,6 | %42
 G,2 G,3 G, | F,6 | E,4 E,2 | D,4 D,2 | E,2 E,2 =F,2 | G,4 F,2 | E,4 F,2 | E,2 E,2 D,2 | %50
 C,2 B,,2 B,,2 | B,,2 B,,2 B,,2 | B,,4 x2 | B,,4 G,2 | ^F,2 ^F,4 | ^F,4 ^F,2 | G,2 D,2 E,2 | %57
 F,2 F,2 F,2 | F,4 F,2 | G,2 G,2 G,2 | _A,4 _A,2 | G,2 G,2 G,2 | F,4 F,2 | E,4 D,2 | C,6 | B,,6 | %66
 !fermata!A,,6 | B,,6 | B,,2 B,,3 B,, | B,,6- | B,,4 x2 | B,,6 | B,,2 B,,3 B,, | B,,6- | B,,4 x2 | %75
 F,,6 | F,,2 F,,2 F,,2 | B,,6 |] %78

